!!!OTL: Wiedersehn Wie schoen blueht sich es der gruene Wald,
!!!ARE: Europa, Mitteleuropa, Lothringen, Weiler
!!!SCT: D0039
!!!YEM: Copyright 1995, estate of Helmut Schaffrath.
**kern
*ICvox
*Ivox
*M3/4
*k[b-e-]
*g:
{4d
=1
4.g
8a
4b-
=2
4a
4b-
4a
=3
4g
4f#
4g
=4
2d}
{4d
=5
2g
4a
=6
4.dd
8ee
4dd
=7
4cc
4b
[4a
=8
4a]
4r}
{8b
8a
=9
4g
4g
8dd
8cc#
=10
4dd
4dd
8g
8g
=11
4.g
8f#
4g
=12
2d}
{4d
=13
4g
4a
[4dd
=14
2dd]
8cc
8b
=15
4.a
8b
4a
=16
2g}
==
!!!AGN: Ballade, Liebe, Wiedervereinigung der Liebenden
!! Neuntonskala (beginnt in Moll, moduliert sofort nach Ionisch)
!!!ONB: ESAC (Essen Associative Code) Database: DVA
!!!AMT: simple triple
!!!AIN: vox
!!!EED: Helmut Schaffrath
!!!EEV: 1.0
*-
